X:25
T:GB/6b/25 [O Madam I'll Present You]
%%VWML:GB-6b-25-0
F:http://www.vwml.org/record/GB/6b/25
T: [The Keys of Heaven] 2nd Version 
C:Sung at Fernhurst, Sussex
P:Noted by Francis Jekyll
C:Transcribed by Simon Furey and Lewis Jones
L:1/8
Q:1/4=110
M:4/4
I:linebreak $
K:G
G | DG GG G2 GG | A>B cA B2 BA | GGGF E2 FG | A3/2 B/ A G GF Bd |$[M:3/4] d4 d2 | B4 AG | [M:4/4] G2 B2 D2 z D | EFGA B2 A2 | G6 |]

